images/logo-white.svg

<?xml version="1.0" encoding="UTF-8"?>
<svg width="165px" height="46px" viewBox="0 0 165 46" version="1.1" xmlns="http://www.w3.org/2000/svg" xmlns:xlink="http://www.w3.org/1999/xlink">
    <!-- Generator: sketchtool 53.2 (72643) - https://sketchapp.com -->
    <title>static/images/logo-white</title>
    <desc>Created with sketchtool.</desc>
    <g id="Main" stroke="none" stroke-width="1" fill="none" fill-rule="evenodd">
        <g id="static/images/logo-white" fill="#FFFFFF">
            <path d="M3.21875,22.265625 C6.78125,22.6171875 8.328125,24.1875 8.328125,27.6328125 L8.328125,35.625 C8.328125,39.9140625 9.96875,41.484375 13.2265625,41.484375 L13.8125,41.484375 L13.8125,43.0546875 L13.1328125,43.0546875 C8.4921875,43.0546875 6.5703125,40.921875 6.5703125,35.765625 L6.5703125,28.6171875 C6.5703125,24.7265625 5.234375,23.3671875 1.4609375,23.3671875 L1.4609375,20.7421875 C5.234375,20.7421875 6.5703125,19.359375 6.5703125,15.4453125 L6.5703125,9.3046875 C6.5703125,4.21875 8.4453125,2.1796875 13.1328125,2.1796875 L13.8125,2.1796875 L13.8125,3.75 L13.2265625,3.75 C9.8515625,3.75 8.328125,5.15625 8.328125,9.3984375 L8.328125,16.40625 C8.328125,19.8515625 6.78125,21.4453125 3.21875,21.796875 L3.21875,22.265625 Z M18.640625,36 L18.640625,0.703125 L21.7109375,0.703125 L21.7109375,36 L18.640625,36 Z M29.28125,17.4375 C29.28125,13.3828125 33.3125,10.3359375 38.3984375,10.3359375 C43.484375,10.3359375 47.09375,12.8671875 47.65625,16.875 L44.6328125,16.875 C44.0703125,14.5078125 41.7265625,12.9609375 38.375,12.9609375 C35.0703125,12.9609375 32.375,14.7890625 32.375,17.3203125 C32.375,19.40625 34.015625,20.6015625 37.390625,21.3984375 L40.859375,22.21875 C45.734375,23.390625 48.1015625,25.359375 48.1015625,29.015625 C48.1015625,33.375 43.859375,36.421875 38.3515625,36.421875 C32.84375,36.421875 29.0234375,33.8203125 28.5078125,29.671875 L31.6953125,29.671875 C32.375,32.203125 34.7890625,33.796875 38.4453125,33.796875 C42.1484375,33.796875 44.9375,31.8984375 44.9375,29.25 C44.9375,27.046875 43.3671875,25.7578125 39.9921875,24.9609375 L36.171875,24.046875 C31.484375,22.921875 29.28125,21 29.28125,17.4375 Z M69.8046875,23.8125 L54.4296875,23.8125 L54.4296875,20.90625 L69.8046875,20.90625 L69.8046875,23.8125 Z M85.0625,33.703125 C89.5859375,33.703125 93.03125,30.609375 93.03125,26.6015625 L93.03125,23.6484375 L85.5546875,24.1875 C81.265625,24.4921875 79.203125,26.0859375 79.203125,28.96875 C79.203125,31.875 81.6640625,33.703125 85.0625,33.703125 Z M84.546875,36.421875 C79.6015625,36.421875 76.0390625,33.5390625 76.0390625,29.015625 C76.0390625,24.609375 79.296875,22.0546875 85.1328125,21.65625 L93.03125,21.140625 L93.03125,18.703125 C93.03125,15.09375 90.8515625,13.078125 86.75,13.078125 C83.28125,13.078125 80.7734375,14.5546875 80.1640625,16.9921875 L77.046875,16.9921875 C77.6328125,12.984375 81.546875,10.3359375 86.84375,10.3359375 C92.7734375,10.3359375 96.125,13.4296875 96.125,18.6796875 L96.125,36 L93.171875,36 L93.171875,31.6640625 L92.890625,31.6640625 C91.34375,34.6640625 88.25,36.421875 84.546875,36.421875 Z M113.867188,33 C118.929688,33 122.070312,29.0859375 122.070312,23.109375 C122.070312,17.109375 118.859375,13.1015625 113.867188,13.1015625 C108.828125,13.1015625 105.78125,17.0625 105.78125,23.0625 C105.78125,29.0390625 108.828125,33 113.867188,33 Z M114.125,45.46875 C108.335938,45.46875 104.492188,42.890625 103.835938,38.953125 L107.09375,38.953125 C107.65625,41.2734375 110.28125,42.7734375 114.125,42.7734375 C119,42.7734375 122.023438,40.21875 122.023438,36.140625 L122.023438,30.46875 L121.71875,30.46875 C120.21875,33.796875 117.125,35.7421875 113.257812,35.7421875 C106.765625,35.7421875 102.617188,30.6328125 102.617188,23.0625 C102.617188,15.4921875 106.789062,10.3359375 113.257812,10.3359375 C117.125,10.3359375 120.476562,12.46875 121.859375,15.75 L122.140625,15.75 L122.140625,10.7578125 L125.09375,10.7578125 L125.09375,36.375 C125.09375,41.859375 120.757812,45.46875 114.125,45.46875 Z M142.976562,13.0546875 C138.382812,13.0546875 135.195312,16.453125 134.914062,21.65625 L150.640625,21.65625 C150.570312,16.453125 147.546875,13.0546875 142.976562,13.0546875 Z M150.335938,29.765625 L153.453125,29.765625 C152.210938,33.8671875 148.320312,36.421875 143.023438,36.421875 C136.085938,36.421875 131.726562,31.359375 131.726562,23.390625 C131.726562,15.46875 136.132812,10.3359375 143,10.3359375 C149.726562,10.3359375 153.851562,15.1171875 153.851562,22.828125 L153.851562,24.1875 L134.890625,24.1875 L134.890625,24.328125 C135.054688,30.0234375 138.21875,33.6796875 143.09375,33.6796875 C146.679688,33.6796875 149.257812,32.25 150.335938,29.765625 Z M162.359375,18.0234375 C161.492188,18.0234375 160.789062,17.3203125 160.789062,16.453125 C160.789062,15.609375 161.492188,14.90625 162.359375,14.90625 C163.203125,14.90625 163.90625,15.609375 163.90625,16.453125 C163.90625,17.3203125 163.203125,18.0234375 162.359375,18.0234375 Z M160.976562,42.09375 L159.40625,42.09375 L161.632812,31.6640625 L163.554688,31.6640625 L160.976562,42.09375 Z" id="{ls-age;"></path>
        </g>
    </g>
</svg>

<svg xmlns="http://www.w3.org/2000/svg" width="165" height="46" viewBox="0 0 165 46"><title>static/images/logo-white</title><path fill="#FFF" fill-rule="evenodd" d="M3.219 22.266c3.562.351 5.11 1.922 5.11 5.367v7.992c0 4.29 1.64 5.86 4.898 5.86h.585v1.57h-.68c-4.64 0-6.562-2.133-6.562-7.29v-7.148c0-3.89-1.336-5.25-5.11-5.25v-2.625c3.774 0 5.11-1.383 5.11-5.297v-6.14c0-5.086 1.875-7.125 6.563-7.125h.68v1.57h-.586c-3.375 0-4.899 1.406-4.899 5.648v7.008c0 3.446-1.547 5.04-5.11 5.39v.47ZM18.64 36V.703h3.07V36h-3.07Zm10.64-18.563c0-4.054 4.032-7.101 9.117-7.101 5.086 0 8.696 2.531 9.258 6.539h-3.023c-.563-2.367-2.906-3.914-6.258-3.914-3.305 0-6 1.828-6 4.36 0 2.085 1.64 3.28 5.016 4.077l3.468.82c4.875 1.173 7.243 3.141 7.243 6.798 0 4.359-4.243 7.406-9.75 7.406-5.508 0-9.329-2.602-9.844-6.75h3.187c.68 2.531 3.094 4.125 6.75 4.125 3.703 0 6.492-1.899 6.492-4.547 0-2.203-1.57-3.492-4.945-4.29l-3.82-.913c-4.688-1.125-6.89-3.047-6.89-6.61Zm40.524 6.375H54.43v-2.906h15.375v2.907Zm15.257 9.891c4.524 0 7.97-3.094 7.97-7.101v-2.954l-7.477.54c-4.29.304-6.352 1.898-6.352 4.78 0 2.907 2.461 4.735 5.86 4.735Zm-.515 2.719c-4.945 0-8.508-2.883-8.508-7.406 0-4.407 3.258-6.961 9.094-7.36l7.898-.515v-2.438c0-3.61-2.18-5.625-6.281-5.625-3.469 0-5.977 1.477-6.586 3.914h-3.117c.586-4.008 4.5-6.656 9.797-6.656 5.93 0 9.281 3.094 9.281 8.344V36h-2.953v-4.336h-.281c-1.547 3-4.641 4.758-8.344 4.758ZM113.867 33c5.063 0 8.203-3.914 8.203-9.89 0-6-3.21-10.008-8.203-10.008-5.039 0-8.086 3.96-8.086 9.96 0 5.977 3.047 9.938 8.086 9.938Zm.258 12.469c-5.79 0-9.633-2.578-10.29-6.516h3.259c.562 2.32 3.187 3.82 7.031 3.82 4.875 0 7.898-2.554 7.898-6.632v-5.672h-.304c-1.5 3.328-4.594 5.273-8.461 5.273-6.492 0-10.64-5.11-10.64-12.68 0-7.57 4.171-12.726 10.64-12.726 3.867 0 7.219 2.133 8.601 5.414h.282v-4.992h2.953v25.617c0 5.484-4.336 9.094-10.969 9.094Zm28.852-32.414c-4.594 0-7.782 3.398-8.063 8.601h15.727c-.07-5.203-3.094-8.601-7.664-8.601Zm7.359 16.71h3.117c-1.242 4.102-5.133 6.657-10.43 6.657-6.937 0-11.296-5.063-11.296-13.031 0-7.922 4.406-13.055 11.273-13.055 6.727 0 10.852 4.781 10.852 12.492v1.36H134.89v.14c.164 5.695 3.328 9.352 8.203 9.352 3.586 0 6.164-1.43 7.242-3.914Zm12.023-11.742a1.57 1.57 0 0 1-1.57-1.57c0-.844.703-1.547 1.57-1.547a1.56 1.56 0 0 1 1.547 1.547c0 .867-.703 1.57-1.547 1.57Zm-1.382 24.07h-1.57l2.226-10.429h1.922l-2.578 10.43Z"/></svg>
